assests/images/3.svg

<svg xmlns="http://www.w3.org/2000/svg" xmlns:xlink="http://www.w3.org/1999/xlink" width="1024" zoomAndPan="magnify" viewBox="0 0 768 767.999994" height="1024" preserveAspectRatio="xMidYMid meet" version="1.0"><defs><clipPath id="ba9dce4bbe"><path d="M 154 167.425781 L 614 167.425781 L 614 600.925781 L 154 600.925781 Z M 154 167.425781 " clip-rule="nonzero"/></clipPath></defs><path fill="#000000" d="M 480.847656 280.449219 C 479.917969 267.246094 474.6875 254.367188 465.191406 244.25 L 458.671875 250.421875 C 468.023438 260.359375 472.609375 273.488281 472.105469 286.476562 L 480.847656 280.449219 " fill-opacity="1" fill-rule="nonzero"/><path fill="#000000" d="M 267.515625 390.910156 C 269.84375 391.125 272.171875 391.234375 274.5 391.234375 C 281.914062 391.234375 289.152344 390.085938 295.886719 388.003906 C 293.199219 395.683594 291.515625 403.863281 290.980469 412.328125 L 425.75 318.730469 C 425.820312 317.617188 425.894531 316.539062 425.894531 315.390625 C 425.894531 299.75 417.976562 285.9375 405.976562 277.757812 L 418.011719 262.832031 L 413.355469 259.066406 L 400.707031 274.746094 C 394.617188 271.695312 387.777344 269.9375 380.503906 269.9375 C 371.441406 269.9375 363.023438 272.628906 355.964844 277.21875 L 341.3125 259.066406 L 336.65625 262.832031 L 351.128906 280.808594 C 341.347656 289.128906 335.113281 301.542969 335.113281 315.390625 C 335.113281 321.492188 336.332031 327.304688 338.519531 332.578125 C 319.066406 335.339844 299.289062 326.296875 289.1875 309.222656 C 278.191406 290.601562 280.984375 266.421875 296.03125 250.421875 L 289.472656 244.25 C 271.707031 263.15625 268.445312 291.75 281.449219 313.777344 C 291.980469 331.609375 311.46875 342.046875 331.675781 342.046875 C 331.855469 342.046875 332.105469 342.046875 332.320312 342.046875 C 318.992188 350.550781 308.066406 362.460938 300.757812 376.597656 C 291.195312 381.007812 279.945312 383.054688 268.335938 381.941406 C 242.652344 379.539062 220.621094 362.496094 214.816406 340.578125 L 206.148438 342.875 C 212.917969 368.382812 238.136719 388.148438 267.515625 390.910156 " fill-opacity="1" fill-rule="nonzero"/><path fill="#000000" d="M 218.542969 438.015625 L 211.019531 442.894531 C 214.886719 448.886719 219.796875 453.910156 225.277344 457.964844 L 233.230469 452.476562 C 227.5 448.742188 222.410156 443.972656 218.542969 438.015625 " fill-opacity="1" fill-rule="nonzero"/><path fill="#000000" d="M 487.152344 390.910156 C 516.527344 388.148438 541.785156 368.382812 548.519531 342.875 L 539.851562 340.578125 C 534.046875 362.496094 512.015625 379.539062 486.328125 381.941406 C 477.730469 382.769531 469.3125 381.835938 461.644531 379.503906 C 456.453125 368.453125 449 358.660156 439.972656 350.621094 L 270.199219 468.582031 C 272.3125 468.1875 274.464844 467.792969 276.578125 467.148438 C 284.566406 464.710938 291.730469 460.582031 297.75 455.203125 C 311.363281 492.011719 343.28125 523.691406 380.503906 523.691406 C 416.4375 523.691406 447.351562 494.128906 461.683594 459.003906 C 466.625 462.519531 472.105469 465.320312 478.089844 467.148438 C 483.535156 468.800781 489.085938 469.625 494.605469 469.625 C 513.914062 469.625 532.6875 459.828125 543.648438 442.894531 L 536.125 438.015625 C 524.160156 456.421875 501.375 464.851562 480.703125 458.539062 C 474.828125 456.78125 469.527344 453.875 464.90625 450.179688 C 468.308594 439.488281 470.28125 428.511719 470.28125 417.78125 C 470.28125 407.988281 468.667969 398.625 465.800781 389.761719 C 470.457031 390.695312 475.257812 391.234375 480.167969 391.234375 C 482.496094 391.234375 484.824219 391.125 487.152344 390.910156 " fill-opacity="1" fill-rule="nonzero"/><g clip-path="url(#ba9dce4bbe)"><path fill="#000000" d="M 581.800781 383.988281 C 581.800781 496.890625 490.054688 588.734375 377.351562 588.734375 C 308.390625 588.734375 247.34375 554.328125 210.300781 501.839844 L 546.085938 268.539062 C 568.582031 301.4375 581.800781 341.1875 581.800781 383.988281 Z M 172.867188 383.988281 C 172.867188 271.085938 264.613281 179.207031 377.351562 179.207031 C 439.972656 179.207031 496.074219 207.582031 533.617188 252.140625 L 199.269531 484.40625 C 182.503906 454.734375 172.867188 420.472656 172.867188 383.988281 Z M 613.46875 221.753906 L 601.753906 204.785156 L 543.578125 245.21875 C 503.847656 197.503906 444.054688 167.117188 377.351562 167.117188 C 257.914062 167.117188 160.792969 264.375 160.792969 383.988281 C 160.792969 423.019531 171.183594 459.652344 189.308594 491.328125 L 154.917969 515.222656 L 166.667969 532.15625 L 200.378906 508.730469 C 239.605469 564.375 304.269531 600.824219 377.351562 600.824219 C 496.753906 600.824219 593.875 503.5625 593.875 383.988281 C 593.875 338.605469 579.902344 296.484375 556.007812 261.648438 L 613.46875 221.753906 " fill-opacity="1" fill-rule="nonzero"/></g></svg>

<svg xmlns="http://www.w3.org/2000/svg" width="1024" viewBox="0 0 768 768" height="1024" version="1.0"><defs><clipPath id="a"><path d="M154 167.426h460v433.5H154Zm0 0"/></clipPath></defs><path d="M480.848 280.45c-.93-13.204-6.16-26.083-15.657-36.2l-6.52 6.172c9.352 9.937 13.938 23.066 13.434 36.055l8.743-6.028M267.516 390.91a75.97 75.97 0 0 0 6.984.324 72.583 72.583 0 0 0 21.387-3.23 91.028 91.028 0 0 0-4.907 24.324l134.77-93.598c.07-1.113.145-2.19.145-3.34 0-15.64-7.918-29.452-19.918-37.632l12.035-14.926-4.657-3.766-12.648 15.68c-6.09-3.05-12.93-4.808-20.203-4.808a44.858 44.858 0 0 0-24.54 7.28l-14.651-18.152-4.657 3.766 14.473 17.977c-9.781 8.32-16.016 20.734-16.016 34.582a44.785 44.785 0 0 0 3.407 17.187c-19.454 2.762-39.23-6.281-49.332-23.355-10.997-18.621-8.204-42.801 6.843-58.801l-6.558-6.172c-17.766 18.906-21.028 47.5-8.024 69.527 10.531 17.832 30.02 28.27 50.227 28.27h.644a90.1 90.1 0 0 0-31.562 34.55c-9.563 4.41-20.813 6.458-32.422 5.344-25.684-2.402-47.715-19.445-53.52-41.363l-8.668 2.297c6.77 25.508 31.989 45.273 61.368 48.035M218.543 438.016l-7.523 4.879c3.867 5.992 8.777 11.015 14.257 15.07l7.953-5.488c-5.73-3.735-10.82-8.504-14.687-14.461M487.152 390.91c29.375-2.762 54.633-22.527 61.368-48.035l-8.668-2.297c-5.805 21.918-27.836 38.961-53.524 41.363-8.598.829-17.015-.105-24.683-2.437-5.192-11.05-12.645-20.844-21.672-28.883L270.199 468.582c2.113-.394 4.266-.789 6.38-1.434 7.987-2.437 15.151-6.566 21.171-11.945 13.613 36.809 45.531 68.488 82.754 68.488 35.933 0 66.848-29.562 81.18-64.687 4.941 3.516 10.421 6.316 16.406 8.144 5.445 1.653 10.996 2.477 16.515 2.477 19.31 0 38.082-9.797 49.043-26.73l-7.523-4.88c-11.965 18.407-34.75 26.837-55.422 20.524-5.875-1.758-11.176-4.664-15.797-8.36 3.403-10.69 5.375-21.667 5.375-32.398 0-9.793-1.613-19.156-4.48-28.02 4.656.934 9.457 1.473 14.367 1.473 2.328 0 4.656-.109 6.984-.324"/><g clip-path="url(#a)"><path d="M581.8 383.988c0 112.903-91.745 204.746-204.448 204.746-68.961 0-130.008-34.406-167.051-86.894l335.785-233.3c22.496 32.897 35.715 72.647 35.715 115.448Zm-408.933 0c0-112.902 91.746-204.781 204.485-204.781 62.62 0 118.722 28.375 156.265 72.934L199.27 484.406c-16.766-29.672-26.403-63.933-26.403-100.418ZM613.47 221.754l-11.715-16.969-58.176 40.434c-39.73-47.715-99.523-78.102-166.226-78.102-119.438 0-216.559 97.258-216.559 216.871 0 39.032 10.39 75.664 28.516 107.34l-34.391 23.895 11.75 16.933 33.71-23.426c39.227 55.645 103.892 92.094 176.974 92.094 119.402 0 216.523-97.261 216.523-216.836 0-45.383-13.973-87.504-37.867-122.34l57.46-39.894"/></g></svg>
